Papirus-GTK/24x24/apps/lookit.svg

<svg height="24" width="24" xmlns="http://www.w3.org/2000/svg"><g transform="matrix(1 0 0 1.0322581 0 -.3870972)"><path d="m1.0117 14.034c-.00415.0875-.0117.1735-.0117.262 0 3.0125 2.46245 5.454 5.5 5.454h11.6875c2.658 0 4.8125-2.1365 4.8125-4.7725 0-.0865-.007-.1715-.0115-.257-.129 2.522-2.226 4.5295-4.801 4.5295h-11.6875c-2.95645 0-5.3615-2.315-5.4885-5.216z" opacity=".3"/><path d="m12 4.25c-2.8475 0-5.2725 1.729-6.3165 4.176-2.65065.391-4.6835 2.632-4.6835 5.3695 0 3.0125 2.46245 5.4545 5.5 5.4545h11.6875c2.658 0 4.8125-2.137 4.8125-4.7725 0-2.45-1.8575-4.4575-4.254-4.7305-.625-3.127-3.409-5.497-6.746-5.497z" fill="#ccc"/><path d="m12 4.25c-2.8475 0-5.2725 1.7285-6.3165 4.176-2.65065.3905-4.6835 2.6325-4.6835 5.37 0 .0805.00825.1585.0117.238.12535-2.617 2.1065-4.73 4.6718-5.108 1.044-2.4475 3.469-4.176 6.3165-4.176 3.337 0 6.121 2.3695 6.746 5.497 2.312.263 4.117 2.142 4.2425 4.4735.004-.081.0115-.161.0115-.243 0-2.45-1.8575-4.4575-4.254-4.7305-.625-3.1275-3.409-5.497-6.746-5.497z" fill="#fff" opacity=".2"/></g><g transform="matrix(.5 0 0 .5 0 -.5)"><path d="m24 13a12 12 0 0 0 -12 12 12 12 0 0 0  12 12 12 12 0 0 0  12-12 12 12 0 0 0 -12-12zm0 3a9 9 0 0 1 9 9 9 9 0 0 1 -9 9 9 9 0 0 1 -9-9 9 9 0 0 1  9-9z" opacity=".5"/><circle cx="24" cy="25" opacity=".5" r="6"/></g></svg>

<?xml version="1.0" encoding="UTF-8" standalone="no"?>
<!-- Created with Inkscape (http://www.inkscape.org/) -->

<svg
   xmlns:dc="http://purl.org/dc/elements/1.1/"
   xmlns:cc="http://creativecommons.org/ns#"
   xmlns:rdf="http://www.w3.org/1999/02/22-rdf-syntax-ns#"
   xmlns:svg="http://www.w3.org/2000/svg"
   xmlns="http://www.w3.org/2000/svg"
   xmlns:sodipodi="http://sodipodi.sourceforge.net/DTD/sodipodi-0.dtd"
   xmlns:inkscape="http://www.inkscape.org/namespaces/inkscape"
   id="svg2817"
   height="24"
   width="24"
   version="1.0"
   inkscape:version="0.91 r13725"
   sodipodi:docname="lookit.svg">
  <defs
     id="defs13" />
  <sodipodi:namedview
     pagecolor="#ffffff"
     bordercolor="#666666"
     borderopacity="1"
     objecttolerance="10"
     gridtolerance="10"
     guidetolerance="10"
     inkscape:pageopacity="0"
     inkscape:pageshadow="2"
     inkscape:window-width="1600"
     inkscape:window-height="849"
     id="namedview11"
     showgrid="false"
     inkscape:zoom="8.6599296"
     inkscape:cx="-27.289296"
     inkscape:cy="10.869661"
     inkscape:window-x="0"
     inkscape:window-y="0"
     inkscape:window-maximized="1"
     inkscape:current-layer="svg2817" />
  <metadata
     id="metadata57">
    <rdf:RDF>
      <cc:Work
         rdf:about="">
        <dc:format>image/svg+xml</dc:format>
        <dc:type
           rdf:resource="http://purl.org/dc/dcmitype/StillImage" />
        <dc:title></dc:title>
      </cc:Work>
    </rdf:RDF>
  </metadata>
  <g
     id="g4157"
     transform="matrix(1,0,0,1.0322581,0,-0.3870972)">
    <path
       d="M 1.0117,14.034 C 1.00755,14.1215 1,14.2075 1,14.296 1,17.3085 3.46245,19.75 6.5,19.75 l 11.6875,0 c 2.658,0 4.8125,-2.1365 4.8125,-4.7725 0,-0.0865 -0.007,-0.1715 -0.0115,-0.257 -0.129,2.522 -2.226,4.5295 -4.801,4.5295 L 6.5,19.25 c -2.95645,0 -5.3615,-2.315 -5.4885,-5.216 z"
       style="opacity:0.3;enable-background:new"
       id="path3237"
       inkscape:connector-curvature="0" />
    <path
       d="M 12,4.25 C 9.1525,4.25 6.7275,5.979 5.6835,8.426 3.03285,8.817 1,11.058 1,13.7955 1,16.808 3.46245,19.25 6.5,19.25 l 11.6875,0 C 20.8455,19.25 23,17.113 23,14.4775 23,12.0275 21.1425,10.02 18.746,9.747 18.121,6.62 15.337,4.25 12,4.25 Z"
       style="fill:#cccccc;fill-opacity:1;enable-background:new"
       id="path5884"
       inkscape:connector-curvature="0" />
    <path
       d="M 12,4.25 C 9.1525,4.25 6.7275,5.9785 5.6835,8.426 3.03285,8.8165 1,11.0585 1,13.796 1,13.8765 1.00825,13.9545 1.0117,14.034 1.13705,11.417 3.1182,9.304 5.6835,8.926 6.7275,6.4785 9.1525,4.75 12,4.75 c 3.337,0 6.121,2.3695 6.746,5.497 2.312,0.263 4.117,2.142 4.2425,4.4735 C 22.9925,14.6395 23,14.5595 23,14.4775 23,12.0275 21.1425,10.02 18.746,9.747 18.121,6.6195 15.337,4.25 12,4.25 Z"
       style="opacity:0.2;fill:#ffffff;enable-background:new"
       id="path4189"
       inkscape:connector-curvature="0" />
  </g>
  <g
     id="g4184"
     transform="matrix(0.5,0,0,0.5,0,-0.5)">
    <path
       id="path4139"
       d="M 24,13 A 12,12 0 0 0 12,25 12,12 0 0 0 24,37 12,12 0 0 0 36,25 12,12 0 0 0 24,13 Z m 0,3 a 9,9 0 0 1 9,9 9,9 0 0 1 -9,9 9,9 0 0 1 -9,-9 9,9 0 0 1 9,-9 z"
       style="opacity:0.5;fill:#000000;fill-opacity:1;stroke:none;stroke-width:2;stroke-linecap:round;stroke-linejoin:round;stroke-miterlimit:4;stroke-dasharray:none;stroke-opacity:1"
       inkscape:connector-curvature="0" />
    <circle
       r="6"
       cy="25"
       cx="24"
       id="path4144"
       style="opacity:0.5;fill:#000000;fill-opacity:1;stroke:none;stroke-width:2;stroke-linecap:round;stroke-linejoin:round;stroke-miterlimit:4;stroke-dasharray:none;stroke-opacity:1" />
  </g>
</svg>
